X:1
T:Oft When the Day Is Dreary
T:Oft When the Day Is Dreary
T:Mrs. Wyndham Heathcote
T:Mrs. Wyndham Heathcote, 1895
T:Public Domain Courtesy of the Cyber Hymnal™
C:Mrs. Wyndham Heathcote
Z:Public Domain
Z:Courtesy of the Cyber Hymnal™
%%score ( 1 2 ) ( 3 4 )
L:1/8
Q:1/4=125
M:3/4
K:Eb
V:1 treble 
V:2 treble 
V:3 bass 
V:4 bass 
V:1
 [EG]2 [E^F]3 [EG] | [EB]4 E2 | [DF]6 | E6 | [FB]2 [Ge]3 [Fe] | [Fd]4 [Ec]2 | [DB]6- | [DB]4 z2 | %8
w: 1.~Oft when the|day is|drear-|y,|Oft when the|storm clouds|lower,||
w: 2.~He bids me|tell my|stor-|y,|Tell- ing, He|gives me|rest;||
w: 3.~Je- sus, Thy|heart is|with|me|All thro’ the|dark- est|night,||
w: 4.~Won- drous in|love is|Je-|sus,|Sweet is the|rest He|gives;||
 [Ee]2 [EB]3 [EB] | [Ed]4 [Ac]2 | c6 | [GB]6 | [GB]2 E3 [EF] | [DG]4 [DF]2 | E6- | E4 z2 || %16
w: Oft when my|spir- it’s|wear-|y—|Je- sus im-|parts His|power.||
w: And while my|sor- rows|shar-|ing,|Shel- ters me|in His|breast.||
w: As when the|sun shines|clear-|ly|Mak- ing my|path- way|bright.||
w: Shar- ing in|all my|toil-|ing,|While in my|heart He|lives.||
"^Refrain" [DB]2 [B,D]3 [B,E] | [B,D]6 | [B,B]2 [B,E]3 [B,F] | [B,E]6 | [EG]2 [EF]2 [E=A]2 | %21
w: |||||
w: Je- sus is|near,|bur- dens to|bear;|Wear- y one,|
w: |||||
w: |||||
 [Ge]2 [Fd]3 [Ec] | [Ec]6 | [DB]4 z2 | [DB]2 [B,D]3 [B,E] | [B,D]6 | [B,B]2 [B,E]3 [B,F] | %27
w: ||||||
w: Je- sus will|help|thee;|Je- sus is|near,|bur- dens to|
w: ||||||
w: ||||||
 [B,E]4 [Ec]2 | [Ec]4 [EB]2 | [EA]4 D2 | [DF]6 | E4 z2 |] %32
w: |||||
w: bear; His|blood from|sin doth|cleanse|thee.|
w: |||||
w: |||||
V:2
 x6 | x4 E2 | x6 | E6 | x6 | x6 | x6 | x6 | x6 | x6 | (A2 G2 ^F2) | x6 | x2 E3 x | x6 | E6- | %15
 E4 x2 || x6 | x6 | x6 | x6 | x6 | x6 | x6 | x6 | x6 | x6 | x6 | x6 | x6 | x4 D2 | x6 | E4 x2 |] %32
V:3
 [E,B,]2 [E,=A,]3 [E,B,] | [E,G,]4 [E,G,]2 | [B,,A,]6 | [C,G,]6 | [D,F,]2 [E,C]3 [F,=A,] | %5
 B,4 [F,=A,]2 | [B,,B,]6- | [B,,B,]4 z2 | [E,G,]2 G,3 [E,G,] | A,4 [A,E]2 | [A,E]6 | [E,E]6 | %12
 [E,E]2 [G,B,]3 [=A,C] | B,4 [B,,A,]2 | [E,G,]6- | [E,G,]4 z2 || [B,,B,]2 [B,,F,]3 [B,,G,] | %17
 [B,,A,]6 | [E,G,]2 [E,G,]3 [E,A,] | [E,G,]6 | [F,=A,]2 [F,A,]2 [F,C]2 | [F,=A,]2 [F,A,]3 [F,A,] | %22
 [F,=A,]6 | [B,,B,]4 z2 | [B,,B,]2 [B,,F,]3 [B,,G,] | [B,,A,]6 | [E,G,]2 [E,G,]3 [E,A,] | %27
 [E,G,]4 A,2 | A,4 [G,B,]2 | [F,C]4 [B,,B,]2 | [B,,A,]6 | [E,G,]4 z2 |] %32
V:4
 x6 | x6 | x6 | x6 | x6 | B,4 x2 | x6 | x6 | x2 G,3 x | A,4 x2 | x6 | x6 | x6 | B,4 x2 | x6 | x6 || %16
 x6 | x6 | x6 | x6 | x6 | x6 | x6 | x6 | x6 | x6 | x6 | x4 A,2 | A,4 x2 | x6 | x6 | x6 |] %32

